X:271
M:4/4
L:1/4
K:F
F2 F G | A3 d | c2 B2 | A4 | A2 A B | c2 F2 | A2 G2 | F3 A | F3 A | G2 A2 | F2 G2 | E4 | !sintro!D2 D D |  A3 G | F2 ^E2 | D4 !eintro!|]
